fs/table_delete_column_20_regular.svg

<svg viewBox="0 0 20 20" fill="none" xmlns="http://www.w3.org/2000/svg" height="1em" width="1em">
  <path d="M10.5 2.5C10.5 2.22386 10.2761 2 10 2C9.72386 2 9.5 2.22386 9.5 2.5V7.375C9.62722 7.48209 9.74377 7.60252 9.85995 7.72255C9.90648 7.77064 9.95295 7.81866 10 7.86573C10.047 7.81873 10.0934 7.77079 10.1399 7.7228C10.2561 7.60274 10.3728 7.4822 10.5 7.3751V2.5ZM9.5 17.5V12.612C9.62722 12.505 9.74377 12.3845 9.85995 12.2645C9.90648 12.2164 9.95295 12.1684 10 12.1213C10.0471 12.1684 10.0935 12.2163 10.14 12.2644C10.2562 12.3844 10.3728 12.5049 10.5 12.612V17.5C10.5 17.7761 10.2761 18 10 18C9.72386 18 9.5 17.7761 9.5 17.5ZM2 3.5C2 3.22386 2.22386 3 2.5 3H4C5.10457 3 6 3.89543 6 5V15C6 16.1046 5.10457 17 4 17H2.5C2.22386 17 2 16.7761 2 16.5C2 16.2239 2.22386 16 2.5 16H4C4.55228 16 5 15.5523 5 15V13H2.5C2.22386 13 2 12.7761 2 12.5C2 12.2239 2.22386 12 2.5 12H5V8H2.5C2.22386 8 2 7.77614 2 7.5C2 7.22386 2.22386 7 2.5 7H5V5C5 4.44772 4.55228 4 4 4H2.5C2.22386 4 2 3.77614 2 3.5ZM18 3.5C18 3.22386 17.7761 3 17.5 3H16C14.8954 3 14 3.89543 14 5V15C14 16.1046 14.8954 17 16 17H17.5C17.7761 17 18 16.7761 18 16.5C18 16.2239 17.7761 16 17.5 16H16C15.4477 16 15 15.5523 15 15V13H17.5C17.7761 13 18 12.7761 18 12.5C18 12.2239 17.7761 12 17.5 12H15V8H17.5C17.7761 8 18 7.77614 18 7.5C18 7.22386 17.7761 7 17.5 7H15V5C15 4.44772 15.4477 4 16 4H17.5C17.7761 4 18 3.77614 18 3.5ZM11.8536 8.14645C11.6583 7.95118 11.3417 7.95118 11.1464 8.14645L10 9.29289L8.85355 8.14645C8.65829 7.95118 8.34171 7.95118 8.14645 8.14645C7.95118 8.34171 7.95118 8.65829 8.14645 8.85355L9.29289 10L8.14645 11.1464C7.95118 11.3417 7.95118 11.6583 8.14645 11.8536C8.34171 12.0488 8.65829 12.0488 8.85355 11.8536L10 10.7071L11.1464 11.8536C11.3417 12.0488 11.6583 12.0488 11.8536 11.8536C12.0488 11.6583 12.0488 11.3417 11.8536 11.1464L10.7071 10L11.8536 8.85355C12.0488 8.65829 12.0488 8.34171 11.8536 8.14645Z" fill="#212121"/>
</svg>

<svg viewBox="0 0 20 20" fill="none" xmlns="http://www.w3.org/2000/svg" height="1em" width="1em">
  <path d="M10.5 2.5a.5.5 0 0 0-1 0v4.875c.127.107.244.228.36.348l.14.143.14-.143c.116-.12.233-.24.36-.348V2.5Zm-1 15v-4.888c.127-.107.244-.228.36-.348l.14-.143.14.143c.116.12.233.24.36.348V17.5a.5.5 0 0 1-1 0ZM2 3.5a.5.5 0 0 1 .5-.5H4a2 2 0 0 1 2 2v10a2 2 0 0 1-2 2H2.5a.5.5 0 0 1 0-1H4a1 1 0 0 0 1-1v-2H2.5a.5.5 0 0 1 0-1H5V8H2.5a.5.5 0 0 1 0-1H5V5a1 1 0 0 0-1-1H2.5a.5.5 0 0 1-.5-.5Zm16 0a.5.5 0 0 0-.5-.5H16a2 2 0 0 0-2 2v10a2 2 0 0 0 2 2h1.5a.5.5 0 0 0 0-1H16a1 1 0 0 1-1-1v-2h2.5a.5.5 0 0 0 0-1H15V8h2.5a.5.5 0 0 0 0-1H15V5a1 1 0 0 1 1-1h1.5a.5.5 0 0 0 .5-.5Zm-6.146 4.646a.5.5 0 0 0-.708 0L10 9.293 8.854 8.146a.5.5 0 1 0-.708.708L9.293 10l-1.147 1.146a.5.5 0 0 0 .708.708L10 10.707l1.146 1.147a.5.5 0 0 0 .708-.708L10.707 10l1.147-1.146a.5.5 0 0 0 0-.708Z" fill="#212121"/>
</svg>
